public/vendors/feather/icons/codepen.svg

<svg xmlns="http://www.w3.org/2000/svg" width="24" height="24" fill="none" stroke="currentColor" stroke-width="2" stroke-linecap="round" stroke-linejoin="round" class="feather feather-codepen"><path d="M12 2l10 6.5v7L12 22 2 15.5v-7L12 2zm0 20v-6.5"/><path d="M22 8.5l-10 7-10-7"/><path d="M2 15.5l10-7 10 7M12 2v6.5"/></svg>

<svg xmlns="http://www.w3.org/2000/svg" width="24" height="24" fill="none" stroke="currentColor" stroke-width="2" stroke-linecap="round" stroke-linejoin="round" class="feather feather-codepen"><path d="M12 2L22 8.5 22 15.5 12 22 2 15.5 2 8.5 12 2z"/><path d="M12 22L12 15.5"/><path d="M22 8.5L12 15.5 2 8.5"/><path d="M2 15.5L12 8.5 22 15.5"/><path d="M12 2L12 8.5"/></svg>
